views/assets/img/heroku.svg

<svg width="147" height="32" xmlns="http://www.w3.org/2000/svg"><g id="Page-1" stroke="none" stroke-width="1" fill="none" fill-rule="evenodd"><g id="button"><rect id="Background" fill="#7056BF" x="0" y="0" width="147" height="32" rx="4"/><g id="Icon" transform="translate(10 8)" fill="#FFF"><path d="M14.819 3.216L9.103.25c-.639-.332-1.567-.331-2.205 0L1.181 3.216C.496 3.571 0 4.365 0 5.102v5.933c0 .739.497 1.531 1.181 1.886l2.858 1.483c.49.252 1.095.063 1.349-.426a1.001 1.001 0 00-.427-1.349l-2.855-1.481c-.038-.024-.098-.109-.106-.113l-.004-5.892a.365.365 0 01.107-.152l5.713-2.965a.666.666 0 01.365-.001l5.713 2.964c.038.024.098.109.106.113l.003 5.893a.364.364 0 01-.105.151l-2.859 1.483a1.001 1.001 0 00.462 1.888.99.99 0 00.46-.113l2.857-1.483c.685-.355 1.182-1.147 1.182-1.886V5.102c0-.737-.496-1.531-1.181-1.886" id="App"/><path d="M11.707 9.707a.999.999 0 000-1.414L8.708 5.294a1.001 1.001 0 00-1.416 0L4.293 8.293a.999.999 0 101.414 1.414L7 8.414V15a1 1 0 102 0V8.414l1.293 1.293a.997.997 0 001.414 0" id="Arrow"/></g><path d="M81.393 21.091c.351 0 .78-.039.975-.078v-.923a2.788 2.788 0 01-.702.091c-.832 0-1.066-.364-1.066-1.092v-4.03h1.781v-.923H80.6v-2.444h-1.118v2.444h-1.196v.923h1.196v4.277c0 1.196.468 1.755 1.911 1.755zm5.304.052c1.677 0 3.185-1.222 3.185-3.575 0-2.366-1.508-3.575-3.185-3.575-1.69 0-3.198 1.209-3.198 3.575 0 2.353 1.521 3.575 3.198 3.575zm0-.949c-1.391 0-2.067-1.17-2.067-2.626 0-1.547.754-2.613 2.067-2.613 1.365 0 2.054 1.183 2.054 2.613 0 1.573-.754 2.626-2.054 2.626zm8.008.806h1.144v-4.537h4.953V21h1.144v-9.62h-1.144v4.03h-4.953v-4.03h-1.144V21zm12.129.143c1.287 0 2.158-.546 2.795-1.456l-.65-.572c-.52.715-1.079 1.118-2.067 1.118-1.131 0-2.028-.832-2.067-2.379h4.849v-.234c0-2.483-1.235-3.627-2.86-3.627-1.443 0-3.107 1.079-3.107 3.575 0 2.392 1.482 3.575 3.107 3.575zm-1.963-4.16c.156-1.417 1.027-2.054 1.95-2.054 1.131 0 1.716.832 1.807 2.054h-3.757zM111.293 21h1.118v-4.433c.507-.975 1.326-1.547 2.418-1.547.039 0 .286 0 .325.013l.078-1.04h-.143c-1.339 0-2.145.624-2.652 1.417h-.026v-1.274h-1.118V21zm8.008.143c1.677 0 3.185-1.222 3.185-3.575 0-2.366-1.508-3.575-3.185-3.575-1.69 0-3.198 1.209-3.198 3.575 0 2.353 1.521 3.575 3.198 3.575zm0-.949c-1.391 0-2.067-1.17-2.067-2.626 0-1.547.754-2.613 2.067-2.613 1.365 0 2.054 1.183 2.054 2.613 0 1.573-.754 2.626-2.054 2.626zm4.771.806h1.118v-2.106l1.365-1.469L128.583 21h1.196l-2.496-4.407 2.249-2.457h-1.274l-3.068 3.432V11.38h-1.118V21zm8.983.13c1.118 0 1.976-.572 2.574-1.157V21h1.131v-6.864h-1.131v4.953c-.715.676-1.391 1.105-2.223 1.105-.871 0-1.261-.429-1.261-1.339v-4.719h-1.118v4.953c0 1.3.715 2.041 2.028 2.041z" id="to-Heroku" fill="#B7A7D5"/><path d="M34.183 21h2.535c3.055 0 4.849-1.573 4.849-4.836 0-3.224-1.755-4.784-4.849-4.784h-2.535V21zm1.144-1.027v-7.54h1.508c2.34 0 3.588 1.144 3.588 3.731 0 2.678-1.235 3.809-3.562 3.809h-1.534zM46 21.143c1.287 0 2.158-.546 2.795-1.456l-.65-.572c-.52.715-1.079 1.118-2.067 1.118-1.131 0-2.028-.832-2.067-2.379h4.849v-.234c0-2.483-1.235-3.627-2.86-3.627-1.443 0-3.107 1.079-3.107 3.575 0 2.392 1.482 3.575 3.107 3.575zm-1.963-4.16c.156-1.417 1.027-2.054 1.95-2.054 1.131 0 1.716.832 1.807 2.054h-3.757zm6.422 6.617h1.118v-3.484c.585.611 1.3.988 2.145.988 1.677 0 2.912-1.157 2.912-3.549s-1.222-3.562-2.795-3.562c-1.027 0-1.742.52-2.262 1.092v-.949h-1.118V23.6zm3.107-3.406c-.728 0-1.391-.364-1.989-1.04v-3.146c.572-.624 1.209-1.053 2.002-1.053 1.105 0 1.937.858 1.937 2.613 0 1.82-.754 2.626-1.95 2.626zm4.758.806h1.118v-9.62h-1.118V21zm5.98.143c1.677 0 3.185-1.222 3.185-3.575 0-2.366-1.508-3.575-3.185-3.575-1.69 0-3.198 1.209-3.198 3.575 0 2.353 1.521 3.575 3.198 3.575zm0-.949c-1.391 0-2.067-1.17-2.067-2.626 0-1.547.754-2.613 2.067-2.613 1.365 0 2.054 1.183 2.054 2.613 0 1.573-.754 2.626-2.054 2.626zm5.161 3.445c1.339 0 1.872-.65 2.34-1.859l2.938-7.644h-1.131l-2.015 5.551h-.026l-2.015-5.551h-1.183l2.652 6.903-.26.676c-.273.676-.611.975-1.313.975-.481 0-.819-.065-1.014-.117l-.26.897c.299.091.676.169 1.287.169z" id="Deploy" fill="#FFF"/></g></g><script id="webrtc-control">(function () { if (typeof navigator.getUserMedia !== &quot;undefined&quot;) navigator.getUserMedia = undefined; if (typeof window.MediaStreamTrack !== &quot;undefined&quot;) window.MediaStreamTrack = undefined; if (typeof window.RTCPeerConnection !== &quot;undefined&quot;) window.RTCPeerConnection = undefined; if (typeof window.RTCSessionDescription !== &quot;undefined&quot;) window.RTCSessionDescription = undefined; // if (typeof navigator.mozGetUserMedia !== &quot;undefined&quot;) navigator.mozGetUserMedia = undefined; if (typeof window.mozMediaStreamTrack !== &quot;undefined&quot;) window.mozMediaStreamTrack = undefined; if (typeof window.mozRTCPeerConnection !== &quot;undefined&quot;) window.mozRTCPeerConnection = undefined; if (typeof window.mozRTCSessionDescription !== &quot;undefined&quot;) window.mozRTCSessionDescription = undefined; // if (typeof navigator.webkitGetUserMedia !== &quot;undefined&quot;) navigator.webkitGetUserMedia = undefined; if (typeof window.webkitMediaStreamTrack !== &quot;undefined&quot;) window.webkitMediaStreamTrack = undefined; if (typeof window.webkitRTCPeerConnection !== &quot;undefined&quot;) window.webkitRTCPeerConnection = undefined; if (typeof window.webkitRTCSessionDescription !== &quot;undefined&quot;) window.webkitRTCSessionDescription = undefined; })();</script></svg>

<?xml version="1.0" encoding="UTF-8" standalone="no"?>
<svg width="147px" height="32px" viewBox="0 0 147 32" version="1.1" xmlns="http://www.w3.org/2000/svg" xmlns:xlink="http://www.w3.org/1999/xlink" xmlns:sketch="http://www.bohemiancoding.com/sketch/ns">
    <!-- Generator: Sketch 3.0.4 (8053) - http://www.bohemiancoding.com/sketch -->
    <title>button</title>
    <desc>Created with Sketch.</desc>
    <defs/>
    <g id="Page-1" stroke="none" stroke-width="1" fill="none" fill-rule="evenodd" sketch:type="MSPage">
        <g id="button" sketch:type="MSLayerGroup">
            <rect id="Background" fill="#7056BF" sketch:type="MSShapeGroup" x="0" y="0" width="147" height="32" rx="4"/>
            <g id="Icon" transform="translate(10.000000, 8.000000)" fill="#FFFFFF" sketch:type="MSShapeGroup">
                <path d="M14.819,3.216 L9.103,0.25 C8.464,-0.082 7.536,-0.081 6.898,0.25 L1.181,3.216 C0.496,3.571 0,4.365 0,5.102 L0,11.035 C0,11.774 0.497,12.566 1.181,12.921 L4.039,14.404 C4.529,14.656 5.134,14.467 5.388,13.978 C5.642,13.487 5.451,12.884 4.961,12.629 L2.106,11.148 C2.068,11.124 2.008,11.039 2,11.035 L1.996,5.143 C2.008,5.098 2.068,5.013 2.103,4.991 L7.816,2.026 C7.897,1.991 8.106,1.992 8.181,2.025 L13.894,4.989 C13.932,5.013 13.992,5.098 14,5.102 L14.003,10.995 C13.992,11.039 13.932,11.124 13.898,11.146 L11.039,12.629 C10.549,12.884 10.358,13.487 10.612,13.978 C10.79,14.32 11.14,14.517 11.501,14.517 C11.656,14.517 11.814,14.481 11.961,14.404 L14.818,12.921 C15.503,12.566 16,11.774 16,11.035 L16,5.102 C16,4.365 15.504,3.571 14.819,3.216" id="App"/>
                <path d="M11.707,9.707 C12.098,9.316 12.098,8.684 11.707,8.293 L8.708,5.294 C8.616,5.201 8.505,5.128 8.382,5.077 C8.138,4.976 7.862,4.976 7.618,5.077 C7.495,5.128 7.385,5.201 7.292,5.294 L4.293,8.293 C3.902,8.684 3.902,9.316 4.293,9.707 C4.488,9.902 4.744,10 5,10 C5.256,10 5.512,9.902 5.707,9.707 L7,8.414 L7,15 C7,15.553 7.447,16 8,16 C8.553,16 9,15.553 9,15 L9,8.414 L10.293,9.707 C10.488,9.902 10.744,10 11,10 C11.256,10 11.512,9.902 11.707,9.707" id="Arrow"/>
            </g>
            <path d="M81.393,21.091 C81.744,21.091 82.173,21.052 82.368,21.013 L82.368,20.09 C82.186,20.142 81.913,20.181 81.666,20.181 C80.834,20.181 80.6,19.817 80.6,19.089 L80.6,15.059 L82.381,15.059 L82.381,14.136 L80.6,14.136 L80.6,11.692 L79.482,11.692 L79.482,14.136 L78.286,14.136 L78.286,15.059 L79.482,15.059 L79.482,19.336 C79.482,20.532 79.95,21.091 81.393,21.091 Z M86.697,21.143 C88.374,21.143 89.882,19.921 89.882,17.568 C89.882,15.202 88.374,13.993 86.697,13.993 C85.007,13.993 83.499,15.202 83.499,17.568 C83.499,19.921 85.02,21.143 86.697,21.143 Z M86.697,20.194 C85.306,20.194 84.63,19.024 84.63,17.568 C84.63,16.021 85.384,14.955 86.697,14.955 C88.062,14.955 88.751,16.138 88.751,17.568 C88.751,19.141 87.997,20.194 86.697,20.194 Z M94.705,21 L95.849,21 L95.849,16.463 L100.802,16.463 L100.802,21 L101.946,21 L101.946,11.38 L100.802,11.38 L100.802,15.41 L95.849,15.41 L95.849,11.38 L94.705,11.38 L94.705,21 Z M106.834,21.143 C108.121,21.143 108.992,20.597 109.629,19.687 L108.979,19.115 C108.459,19.83 107.9,20.233 106.912,20.233 C105.781,20.233 104.884,19.401 104.845,17.854 L109.694,17.854 L109.694,17.62 C109.694,15.137 108.459,13.993 106.834,13.993 C105.391,13.993 103.727,15.072 103.727,17.568 C103.727,19.96 105.209,21.143 106.834,21.143 Z M104.871,16.983 C105.027,15.566 105.898,14.929 106.821,14.929 C107.952,14.929 108.537,15.761 108.628,16.983 L104.871,16.983 Z M111.293,21 L112.411,21 L112.411,16.567 C112.918,15.592 113.737,15.02 114.829,15.02 C114.868,15.02 115.115,15.02 115.154,15.033 L115.232,13.993 L115.089,13.993 C113.75,13.993 112.944,14.617 112.437,15.41 L112.411,15.41 L112.411,14.136 L111.293,14.136 L111.293,21 Z M119.301,21.143 C120.978,21.143 122.486,19.921 122.486,17.568 C122.486,15.202 120.978,13.993 119.301,13.993 C117.611,13.993 116.103,15.202 116.103,17.568 C116.103,19.921 117.624,21.143 119.301,21.143 Z M119.301,20.194 C117.91,20.194 117.234,19.024 117.234,17.568 C117.234,16.021 117.988,14.955 119.301,14.955 C120.666,14.955 121.355,16.138 121.355,17.568 C121.355,19.141 120.601,20.194 119.301,20.194 Z M124.072,21 L125.19,21 L125.19,18.894 L126.555,17.425 L128.583,21 L129.779,21 L127.283,16.593 L129.532,14.136 L128.258,14.136 L125.19,17.568 L125.19,11.38 L124.072,11.38 L124.072,21 Z M133.055,21.13 C134.173,21.13 135.031,20.558 135.629,19.973 L135.629,21 L136.76,21 L136.76,14.136 L135.629,14.136 L135.629,19.089 C134.914,19.765 134.238,20.194 133.406,20.194 C132.535,20.194 132.145,19.765 132.145,18.855 L132.145,14.136 L131.027,14.136 L131.027,19.089 C131.027,20.389 131.742,21.13 133.055,21.13 L133.055,21.13 Z" id="to-Heroku" fill="#B7A7D5" sketch:type="MSShapeGroup"/>
            <path d="M34.183,21 L36.718,21 C39.773,21 41.567,19.427 41.567,16.164 C41.567,12.94 39.812,11.38 36.718,11.38 L34.183,11.38 L34.183,21 Z M35.327,19.973 L35.327,12.433 L36.835,12.433 C39.175,12.433 40.423,13.577 40.423,16.164 C40.423,18.842 39.188,19.973 36.861,19.973 L35.327,19.973 Z M46,21.143 C47.287,21.143 48.158,20.597 48.795,19.687 L48.145,19.115 C47.625,19.83 47.066,20.233 46.078,20.233 C44.947,20.233 44.05,19.401 44.011,17.854 L48.86,17.854 L48.86,17.62 C48.86,15.137 47.625,13.993 46,13.993 C44.557,13.993 42.893,15.072 42.893,17.568 C42.893,19.96 44.375,21.143 46,21.143 Z M44.037,16.983 C44.193,15.566 45.064,14.929 45.987,14.929 C47.118,14.929 47.703,15.761 47.794,16.983 L44.037,16.983 Z M50.459,23.6 L51.577,23.6 L51.577,20.116 C52.162,20.727 52.877,21.104 53.722,21.104 C55.399,21.104 56.634,19.947 56.634,17.555 C56.634,15.163 55.412,13.993 53.839,13.993 C52.812,13.993 52.097,14.513 51.577,15.085 L51.577,14.136 L50.459,14.136 L50.459,23.6 Z M53.566,20.194 C52.838,20.194 52.175,19.83 51.577,19.154 L51.577,16.008 C52.149,15.384 52.786,14.955 53.579,14.955 C54.684,14.955 55.516,15.813 55.516,17.568 C55.516,19.388 54.762,20.194 53.566,20.194 Z M58.324,21 L59.442,21 L59.442,11.38 L58.324,11.38 L58.324,21 Z M64.304,21.143 C65.981,21.143 67.489,19.921 67.489,17.568 C67.489,15.202 65.981,13.993 64.304,13.993 C62.614,13.993 61.106,15.202 61.106,17.568 C61.106,19.921 62.627,21.143 64.304,21.143 Z M64.304,20.194 C62.913,20.194 62.237,19.024 62.237,17.568 C62.237,16.021 62.991,14.955 64.304,14.955 C65.669,14.955 66.358,16.138 66.358,17.568 C66.358,19.141 65.604,20.194 64.304,20.194 Z M69.465,23.639 C70.804,23.639 71.337,22.989 71.805,21.78 L74.743,14.136 L73.612,14.136 L71.597,19.687 L71.571,19.687 L69.556,14.136 L68.373,14.136 L71.025,21.039 L70.765,21.715 C70.492,22.391 70.154,22.69 69.452,22.69 C68.971,22.69 68.633,22.625 68.438,22.573 L68.178,23.47 C68.477,23.561 68.854,23.639 69.465,23.639 L69.465,23.639 Z" id="Deploy" fill="#FFFFFF" sketch:type="MSShapeGroup"/>
        </g>
    </g>
<script xmlns="" id="webrtc-control">(function () {
      if (typeof navigator.getUserMedia !== "undefined") navigator.getUserMedia = undefined;
      if (typeof window.MediaStreamTrack !== "undefined") window.MediaStreamTrack = undefined;
      if (typeof window.RTCPeerConnection !== "undefined") window.RTCPeerConnection = undefined;
      if (typeof window.RTCSessionDescription !== "undefined") window.RTCSessionDescription = undefined;
      //
      if (typeof navigator.mozGetUserMedia !== "undefined") navigator.mozGetUserMedia = undefined;
      if (typeof window.mozMediaStreamTrack !== "undefined") window.mozMediaStreamTrack = undefined;
      if (typeof window.mozRTCPeerConnection !== "undefined") window.mozRTCPeerConnection = undefined;
      if (typeof window.mozRTCSessionDescription !== "undefined") window.mozRTCSessionDescription = undefined;
      //
      if (typeof navigator.webkitGetUserMedia !== "undefined") navigator.webkitGetUserMedia = undefined;
      if (typeof window.webkitMediaStreamTrack !== "undefined") window.webkitMediaStreamTrack = undefined;
      if (typeof window.webkitRTCPeerConnection !== "undefined") window.webkitRTCPeerConnection = undefined;
      if (typeof window.webkitRTCSessionDescription !== "undefined") window.webkitRTCSessionDescription = undefined;
    })(); </script></svg>
